app/images/customer-modal/third-modal/files.svg

<svg width="107" height="100" viewBox="0 0 107 100" fill="none" xmlns="http://www.w3.org/2000/svg">
<path d="M99.2028 26.7102C97.9598 23.4819 95.4086 21.005 92.2937 19.8052C90.5166 15.1814 86.0581 12.095 81.1015 12.095H47.703C46.8674 11.2162 46.0024 10.4508 45.1048 9.79827L41.0652 5.46976C37.6879 1.78899 33.8283 0 29.2657 0H11.987C5.37732 0 0 5.37732 0 11.987V74.1901C0 79.1467 3.08639 83.6052 7.70993 85.3823C8.9095 88.4974 11.3862 91.0482 14.6151 92.2911C16.3417 96.7937 20.7073 100 25.8099 100H94.9244C101.534 100 106.911 94.6227 106.911 88.013V37.905C106.911 32.8024 103.705 28.4367 99.2028 26.7102ZM95.13 25.9231C95.0613 25.922 94.9933 25.9179 94.9244 25.9179H61.0711L57.6445 22.2462H88.013C90.8749 22.2462 93.5112 23.6592 95.13 25.9231ZM88.2177 19.0106C88.1495 19.0095 88.0814 19.0065 88.013 19.0065H55.1836C55.0108 19.0065 54.8447 19.0341 54.6886 19.0842C53.289 17.5978 51.8073 16.4294 50.2272 15.5775C50.2341 15.4968 50.2365 15.4158 50.2313 15.3348H81.1015C83.9637 15.3348 86.5991 16.7471 88.2177 19.0106ZM3.23974 74.1901V11.987C3.23974 7.16371 7.16371 3.23974 11.987 3.23974H29.2657C32.6471 3.23974 35.46 4.44536 38.0609 7.02203C37.446 6.95097 36.8192 6.91145 36.1771 6.91145H18.8985C12.2888 6.91145 6.91145 12.2888 6.91145 18.8985V81.1015C6.91145 81.17 6.91426 81.238 6.91555 81.3063C4.65205 79.6875 3.23974 77.0523 3.23974 74.1901ZM10.1512 81.1015V18.8985C10.1512 14.0752 14.0752 10.1512 18.8985 10.1512H36.1771C38.6996 10.1512 40.9056 10.8212 42.9434 12.2307L44.4881 13.886C44.0283 13.8469 43.5631 13.8229 43.0886 13.8229H25.8099C19.2002 13.8229 13.8229 19.2002 13.8229 25.8099V88.013C13.8229 88.0819 13.827 88.1499 13.8281 88.2186C11.5641 86.6 10.1512 83.9644 10.1512 81.1015ZM103.672 88.013C103.672 92.8363 99.7477 96.7603 94.9244 96.7603H25.8099C20.9866 96.7603 17.0626 92.8363 17.0626 88.013V48.2721C17.0626 43.4488 20.9866 39.5248 25.8099 39.5248H94.9244C99.7477 39.5248 103.672 43.4488 103.672 48.2721V88.013ZM94.9244 36.2851H25.8099C22.362 36.2851 19.2516 37.7503 17.0626 40.0886V25.8099C17.0626 20.9866 20.9866 17.0626 25.8099 17.0626H43.0886C46.743 17.0626 49.7339 18.4672 52.5102 21.4929L59.1829 28.643C59.4892 28.9713 59.9181 29.1577 60.3672 29.1577H94.9244C99.7477 29.1577 103.672 33.0816 103.672 37.905V40.0886C101.483 37.7503 98.3724 36.2851 94.9244 36.2851Z" fill="#1F5190"/>
<path d="M94.9244 46.6523H75.918C75.0234 46.6523 74.2981 47.3774 74.2981 48.2722C74.2981 49.167 75.0234 49.8921 75.918 49.8921H94.9244C95.819 49.8921 96.5443 49.167 96.5443 48.2722C96.5443 47.3774 95.819 46.6523 94.9244 46.6523Z" fill="#1F5190"/>
<path d="M94.9244 53.5635H75.918C75.0234 53.5635 74.2981 54.2885 74.2981 55.1833C74.2981 56.0782 75.0234 56.8032 75.918 56.8032H94.9244C95.819 56.8032 96.5443 56.0782 96.5443 55.1833C96.5443 54.2885 95.819 53.5635 94.9244 53.5635Z" fill="#1F5190"/>
</svg>

<svg width="107" height="100" fill="none" xmlns="http://www.w3.org/2000/svg"><path d="M99.203 26.71a12.048 12.048 0 00-6.91-6.905c-1.776-4.624-6.235-7.71-11.192-7.71H47.703a19.065 19.065 0 00-2.598-2.297l-4.04-4.328C37.688 1.789 33.828 0 29.265 0H11.988C5.377 0 0 5.377 0 11.987V74.19c0 4.957 3.086 9.415 7.71 11.192a12.045 12.045 0 006.905 6.91C16.342 96.793 20.707 100 25.81 100h69.114c6.61 0 11.987-5.377 11.987-11.987V37.905c0-5.103-3.206-9.468-7.708-11.195zm-4.073-.787c-.069-.001-.137-.005-.206-.005H61.071l-3.426-3.672h30.368a8.769 8.769 0 017.117 3.677zm-6.912-6.912c-.069-.002-.137-.005-.205-.005h-32.83c-.172 0-.338.028-.494.078-1.4-1.486-2.882-2.655-4.462-3.506.007-.081.01-.162.004-.243h30.87a8.766 8.766 0 017.117 3.676zM3.24 74.19V11.986c0-4.823 3.924-8.747 8.747-8.747h17.279c3.381 0 6.194 1.205 8.795 3.782a16.377 16.377 0 00-1.884-.11H18.898c-6.61 0-11.987 5.377-11.987 11.986v62.204c0 .068.003.136.005.204A8.767 8.767 0 013.24 74.19zm6.911 6.91V18.898c0-4.823 3.924-8.747 8.747-8.747h17.28c2.522 0 4.728.67 6.765 2.08l1.545 1.655c-.46-.04-.925-.063-1.4-.063H25.81c-6.61 0-11.987 5.377-11.987 11.987v62.203c0 .069.004.137.005.206a8.767 8.767 0 01-3.677-7.117zm93.521 6.912c0 4.823-3.924 8.747-8.748 8.747H25.81c-4.823 0-8.747-3.924-8.747-8.747v-39.74c0-4.824 3.924-8.748 8.747-8.748h69.114c4.824 0 8.748 3.924 8.748 8.747v39.741zm-8.748-51.728H25.81a11.953 11.953 0 00-8.747 3.804v-14.28c0-4.822 3.924-8.746 8.747-8.746h17.279c3.654 0 6.645 1.404 9.421 4.43l6.673 7.15a1.62 1.62 0 001.184.515h34.557c4.824 0 8.748 3.924 8.748 8.747v2.184a11.954 11.954 0 00-8.748-3.804z" fill="#1F5190"/><path d="M94.924 46.652H75.918a1.62 1.62 0 100 3.24h19.006a1.62 1.62 0 100-3.24zM94.924 53.563H75.918a1.62 1.62 0 100 3.24h19.006a1.62 1.62 0 100-3.24z" fill="#1F5190"/></svg>
